X:1
T:Mabel's Fancy
S:Jehile Kirkhuff (Susquehanna County, Pa.)
M:C|
L:1/8
R:Reel
K:A
ef|a2 af ecAc|defd ecAc|dcdf ecAc|GABc defg|
a2 af ecAc|defd ecAc|dcdf ecAc|BAGB A2:|
|:eg|a2 ae gabg|fgaf ecBA|aeab c'bac'|babc' bd'c'b|
abc'a gabg|fgaf ecAc|dcdf ecAc|BAGB A2:|]

